X: 4312
M: 6/8
L: 1/8
K: D
|:\
f3 fed | c3- c2c | B2^A B2e | (e3 A2)z |\
c3- cBA | ^G3- GAB | c2B A2^G | F2z "_D.C."A3 |]


